storage/app/icons/phosphoricons/thin/barricade-thin.svg

<svg xmlns="http://www.w3.org/2000/svg" fill="currentColor" viewBox="0 0 256 256"><path d="M224 68H32a12 12 0 0 0-12 12v72a12 12 0 0 0 12 12h28v36a4 4 0 0 0 8 0v-36h120v36a4 4 0 0 0 8 0v-36h28a12 12 0 0 0 12-12V80a12 12 0 0 0-12-12m4 12v58.34L165.66 76H224a4 4 0 0 1 4 4M32 76h50.34l80 80h-60.68L28 82.34V80a4 4 0 0 1 4-4m-4 76V93.66L90.34 156H32a4 4 0 0 1-4-4m196 4h-50.34l-80-80h60.68L228 149.66V152a4 4 0 0 1-4 4"/></svg>

<svg xmlns="http://www.w3.org/2000/svg" viewBox="0 0 256 256" fill="currentColor"><path d="M224,68H32A12,12,0,0,0,20,80v72a12,12,0,0,0,12,12H60v36a4,4,0,0,0,8,0V164H188v36a4,4,0,0,0,8,0V164h28a12,12,0,0,0,12-12V80A12,12,0,0,0,224,68Zm4,12v58.34L165.66,76H224A4,4,0,0,1,228,80ZM32,76H82.34l80,80H101.66L28,82.34V80A4,4,0,0,1,32,76Zm-4,76V93.66L90.34,156H32A4,4,0,0,1,28,152Zm196,4H173.66l-80-80h60.68L228,149.66V152A4,4,0,0,1,224,156Z"/></svg>
